X: 1
T: Sanctissima mater
C: Anonim
%%abc-version 2.0
%%abcx-abcm2ps-target-version 5.9.1 (29 Sep 2008)
%%abc-creator hum2abc beta
%%abcx-conversion-date 2021/10/04 07:56:47
%%abc-edited-by Marcin Konik
%%abc-edited-by Marcin Konik
%%abc-edited-by Marta Lawrence
%%abcx-initial-encoding-date 2015-03-01
%%humdrum-veritas 3502516861
%%humdrum-veritas-data 3860130523
%%linebreak <none>
%%barnumbers 0
L: 1/4
N: Derived from pl-stab--st-a--001_anonim--sanctissima-mater.krn
K: C
x4A4 | 
A4A4 | 
c6BA | 
G4c4 | 
B4A4 | 
!fermata!G4G4 | 
A4B4 | 
c6BA | 
G4A2B3 | 
AA4G2 | 
A8 |]  


